X:2051
T:Down by the green bushes 
S: Mrs Tom Callister, Balladoole 
C:Traditional
O:Isle of Man
Z:Clague collection
B:Kiaull Vannin #51 
M:3/4 
L:1/4 
Q:100 
K:G 
B/A/|A A/c/ B/A/|G A B/d/|e e/d/ B/A/|G>A B/G/| 
A A/c/ B/A/|G A B/d/|e e/f/ g/f/|e2 e/^d/| 
e a e/^d/|e f g|B d/c/ B/A/|G>A B/A/| 
A A/c/ B/A/|G A B/d/|e e/d/ B|A2|| 

